X: 1
T:(Coste Op. 7 no. 1)
C:Johann Strauss, arr. Napol\'eon Coste
R:Waltz
Z:Transcribed by Frank Nordberg - http://www.musicaviva.com

V:1 Program 1 24 up %Classical guitar
V:2 Program 1 24 merge down %Classical guitar
M:3/4
L:1/4
Q:1/4=160

K:A
V:1
c z c|^B z B|c z c|[ce] z [ce]|f z f|e z e|
V:2
A,EE|A,EE|A,EE|A,EE|G,[Bd][Bd]|G,[Bd][Bd]|

V:1
f z f|e z e|c z c|^B z B|c z z|cea|a/ z/ g2|
V:2
G,[Bd][Bd]|E,[Bd][Bd]|A,EE|A,EE|A,EE|[A,A]cc|E,[Bd][Bd]|

V:1
g/ z/ f2|f/ z/ e2|e/ z/ d2::z e/e/e/e/|(e/f/)ee-|e/ z/ ^d=d|^B2c|
V:2
E,[Bd][Bd]|G,[Bd][Bd]|E,[EG][EG]::A, [Ac] z|E,2 [GB]|E,AB|A,EE|

V:1
z [A/c/]c/c/c/|c/F/BB-|B/ z/ A/ z/ G/ z/|f2e|z e/e/e/e/|(e/f/)ee-|
V:2
F3|D z [DF]|E,CB,|A,[Ac][Ac]|A,[Ac] z|E,2[GB]|

V:1
e^d=d|^B2c|z [A/c/]c/c/c/|c/F/BB-|B/ z/ A/ z/ G/ z/|A zz:|
V:2
E,AB|A,EE|F3|D z [DF]|E,CB,|A, z z:|

